assets/luts/psvibe_soft.cube
TITLE "PS VIBE - Soft Clean"
LUT_1D_SIZE 33
DOMAIN_MIN 0.0 0.0 0.0
DOMAIN_MAX 1.0 1.0 1.0

0.092000 0.092000 0.092000
0.120500 0.120500 0.120500
0.149000 0.149000 0.149000
0.177500 0.177500 0.177500
0.206000 0.206000 0.206000
0.234500 0.234500 0.234500
0.263000 0.263000 0.263000
0.291500 0.291500 0.291500
0.320000 0.320000 0.320000
0.348500 0.348500 0.348500
0.377000 0.377000 0.377000
0.405500 0.405500 0.405500
0.434000 0.434000 0.434000
0.462500 0.462500 0.462500
0.491000 0.491000 0.491000
0.520313 0.520313 0.520313
0.550000 0.550000 0.550000
0.579688 0.579688 0.579688
0.609375 0.609375 0.609375
0.639063 0.639063 0.639063
0.668750 0.668750 0.668750
0.698438 0.698438 0.698438
0.728125 0.728125 0.728125
0.757812 0.757812 0.757812
0.787500 0.787500 0.787500
0.817187 0.817187 0.817187
0.846875 0.846875 0.846875
0.876563 0.876563 0.876563
0.906250 0.906250 0.906250
0.935938 0.935938 0.935938
0.965625 0.965625 0.965625
0.995313 0.995313 0.995313
1.000000 1.000000 1.000000
