assets/luts/psvibe_warm.cube
TITLE "PS VIBE - Warm Golden"
LUT_1D_SIZE 33
DOMAIN_MIN 0.0 0.0 0.0
DOMAIN_MAX 1.0 1.0 1.0

0.000000 0.000000 0.000000
0.028472 0.009222 0.000000
0.062847 0.043597 0.007847
0.097222 0.077972 0.042222
0.131597 0.112347 0.076597
0.165972 0.146722 0.110972
0.200347 0.181097 0.145347
0.234722 0.215472 0.179722
0.269097 0.249847 0.214097
0.303472 0.284222 0.248472
0.337847 0.318597 0.282847
0.372222 0.352972 0.317222
0.406597 0.387347 0.351597
0.440972 0.421722 0.385972
0.475347 0.456097 0.420347
0.509722 0.490472 0.454722
0.544097 0.524847 0.489097
0.578472 0.559222 0.523472
0.612847 0.593597 0.557847
0.647222 0.627972 0.592222
0.681597 0.662347 0.626597
0.715972 0.696722 0.660972
0.750347 0.731097 0.695347
0.784722 0.765472 0.729722
0.819097 0.799847 0.764097
0.853472 0.834222 0.798472
0.887847 0.868597 0.832847
0.922222 0.902972 0.867222
0.956597 0.937347 0.901597
0.990972 0.971722 0.935972
1.000000 1.000000 0.970347
1.000000 1.000000 1.000000
1.000000 1.000000 1.000000
