assets/luts/psvibe_gaming.cube
TITLE "PS VIBE - Vibrant Gaming"
LUT_1D_SIZE 33
DOMAIN_MIN 0.0 0.0 0.0
DOMAIN_MAX 1.0 1.0 1.0

0.000000 0.000000 0.000000
0.000000 0.000000 0.000000
0.000000 0.000000 0.000000
0.019470 0.011670 0.003869
0.058532 0.050732 0.042932
0.097595 0.089794 0.081994
0.136657 0.128857 0.121057
0.175720 0.167919 0.160119
0.214782 0.206982 0.199182
0.253844 0.246045 0.238244
0.292907 0.285107 0.277307
0.331970 0.324169 0.316370
0.371032 0.363232 0.355432
0.410095 0.402295 0.394495
0.449157 0.441357 0.433557
0.488220 0.480420 0.472620
0.527282 0.519482 0.511682
0.566345 0.558544 0.550745
0.605407 0.597607 0.589807
0.644470 0.636669 0.628870
0.683532 0.675732 0.667932
0.722595 0.714794 0.706995
0.761657 0.753857 0.746057
0.800720 0.792919 0.785120
0.839782 0.831982 0.824182
0.878845 0.871044 0.863245
0.917907 0.910107 0.902307
0.956970 0.949169 0.941370
0.996032 0.988232 0.980432
1.000000 1.000000 1.000000
1.000000 1.000000 1.000000
1.000000 1.000000 1.000000
1.000000 1.000000 1.000000
