assets/luts/psvibe_cyber.cube
TITLE "PS VIBE - Cyberpunk Neon"
LUT_1D_SIZE 33
DOMAIN_MIN 0.0 0.0 0.0
DOMAIN_MAX 1.0 1.0 1.0

0.000000 0.000000 0.135706
0.017206 0.000000 0.173206
0.054706 0.000000 0.210706
0.092206 0.000000 0.248206
0.123861 0.000000 0.276741
0.150403 0.000000 0.297433
0.176944 0.026404 0.318124
0.203485 0.070495 0.338815
0.230027 0.114587 0.359507
0.256568 0.158678 0.380198
0.283109 0.202769 0.400889
0.309650 0.246860 0.421580
0.336192 0.290952 0.442272
0.362733 0.335043 0.462963
0.389274 0.379134 0.483654
0.415816 0.423226 0.504346
0.442357 0.467317 0.525037
0.468905 0.510245 0.551585
0.495482 0.548522 0.601562
0.522059 0.586799 0.651539
0.548636 0.625076 0.701516
0.575213 0.663353 0.751493
0.601790 0.701630 0.801470
0.628367 0.739907 0.851447
0.654944 0.778184 0.901424
0.681521 0.816461 0.951401
0.708098 0.854738 1.000000
0.734675 0.893015 1.000000
0.761252 0.931292 1.000000
0.787829 0.969569 1.000000
0.814406 1.000000 1.000000
0.850450 1.000000 1.000000
0.887950 1.000000 1.000000
