assets/luts/psvibe_moody.cube
TITLE "PS VIBE - Dark Moody"
LUT_1D_SIZE 33
DOMAIN_MIN 0.0 0.0 0.0
DOMAIN_MAX 1.0 1.0 1.0

0.000000 0.000000 0.000000
0.000000 0.000000 0.000000
0.000000 0.000000 0.000000
0.000000 0.000000 0.000000
0.000000 0.000000 0.000000
0.016192 0.010760 0.032908
0.052542 0.047950 0.068838
0.088892 0.085140 0.104768
0.125241 0.122329 0.140697
0.161591 0.159519 0.176627
0.197941 0.196709 0.212557
0.234291 0.233899 0.248487
0.270641 0.271089 0.284417
0.306990 0.308278 0.320346
0.343340 0.345468 0.356276
0.379690 0.382658 0.392206
0.416040 0.419848 0.428136
0.452390 0.457038 0.464066
0.488739 0.494227 0.499995
0.526086 0.531686 0.537286
0.563586 0.569186 0.574786
0.601086 0.606686 0.612286
0.638586 0.644186 0.649786
0.676086 0.681686 0.687286
0.713586 0.719186 0.724786
0.751086 0.756686 0.762286
0.788586 0.794186 0.799786
0.826086 0.831686 0.837286
0.863586 0.869186 0.874786
0.901086 0.906686 0.912286
0.938586 0.944186 0.949786
0.976086 0.981686 0.987286
1.000000 1.000000 1.000000
