assets/luts/psvibe_hdr.cube
TITLE "PS VIBE - HDR Punch"
LUT_1D_SIZE 33
DOMAIN_MIN 0.0 0.0 0.0
DOMAIN_MAX 1.0 1.0 1.0

0.000000 0.000000 0.000000
0.000000 0.000000 0.000000
0.000000 0.000000 0.000000
0.000000 0.000000 0.040713
0.000000 0.028085 0.080091
0.022489 0.069888 0.117288
0.068899 0.111692 0.154485
0.115309 0.153495 0.191681
0.161720 0.195299 0.228878
0.208130 0.237102 0.266074
0.254541 0.278906 0.303271
0.300951 0.320709 0.340468
0.347361 0.362513 0.377664
0.393772 0.404316 0.414861
0.440182 0.446120 0.452058
0.486593 0.487923 0.489254
0.529422 0.531606 0.529422
0.570798 0.576053 0.570798
0.612173 0.620499 0.612173
0.653548 0.664946 0.653548
0.694923 0.709392 0.694923
0.736299 0.753839 0.736299
0.777674 0.798285 0.777674
0.819049 0.842732 0.819049
0.860424 0.887178 0.860424
0.901800 0.931625 0.901800
0.943175 0.976071 0.943175
0.984550 1.000000 0.984550
1.000000 1.000000 1.000000
1.000000 1.000000 1.000000
1.000000 1.000000 1.000000
1.000000 1.000000 1.000000
1.000000 1.000000 1.000000
