assets/luts/psvieve_bw.cube
TITLE "PS VIBE - Black & White Punch"
LUT_1D_SIZE 33
DOMAIN_MIN 0.0 0.0 0.0
DOMAIN_MAX 1.0 1.0 1.0

0.000000 0.000000 0.000000
0.000000 0.000000 0.000000
0.000000 0.000000 0.000000
0.000000 0.000000 0.000000
0.012500 0.012500 0.012500
0.053125 0.053125 0.053125
0.093750 0.093750 0.093750
0.134375 0.134375 0.134375
0.175000 0.175000 0.175000
0.215625 0.215625 0.215625
0.256250 0.256250 0.256250
0.296875 0.296875 0.296875
0.337500 0.337500 0.337500
0.378125 0.378125 0.378125
0.418750 0.418750 0.418750
0.459375 0.459375 0.459375
0.500000 0.500000 0.500000
0.540625 0.540625 0.540625
0.581250 0.581250 0.581250
0.621875 0.621875 0.621875
0.662500 0.662500 0.662500
0.703125 0.703125 0.703125
0.743750 0.743750 0.743750
0.784375 0.784375 0.784375
0.825000 0.825000 0.825000
0.865625 0.865625 0.865625
0.906250 0.906250 0.906250
0.946875 0.946875 0.946875
0.987500 0.987500 0.987500
1.000000 1.000000 1.000000
1.000000 1.000000 1.000000
1.000000 1.000000 1.000000
1.000000 1.000000 1.000000
