assets/luts/psvibe_cinematic.cube
TITLE "PS VIBE - Cinematic Teal/Orange"
LUT_1D_SIZE 33
DOMAIN_MIN 0.0 0.0 0.0
DOMAIN_MAX 1.0 1.0 1.0

0.000000 0.000000 0.000000
0.000000 0.000000 0.028440
0.000000 0.000000 0.064378
0.000000 0.000000 0.098428
0.000000 0.030662 0.129071
0.030702 0.068026 0.159714
0.070082 0.105389 0.190358
0.109461 0.142753 0.221001
0.148841 0.180117 0.251644
0.188221 0.217480 0.282288
0.227600 0.254844 0.312931
0.266980 0.292208 0.343574
0.306360 0.329571 0.374218
0.345740 0.366935 0.404861
0.385119 0.404299 0.435504
0.424499 0.441662 0.466148
0.463879 0.479026 0.496791
0.504178 0.516415 0.528354
0.545632 0.553837 0.561071
0.587086 0.591258 0.593789
0.628540 0.628680 0.626506
0.669993 0.666101 0.659223
0.711447 0.703523 0.691941
0.752901 0.740944 0.724658
0.794354 0.778366 0.757375
0.835808 0.815788 0.790093
0.877262 0.853209 0.822810
0.918716 0.890631 0.855527
0.960169 0.928052 0.888244
1.000000 0.965474 0.920962
1.000000 1.000000 0.953679
1.000000 1.000000 0.988105
1.000000 1.000000 1.000000
